!!!OTL@@FUR: Benedet chel v&ocirc;li neri
!!!OTL@IT: Benedetti gli occhi neri
!!!OTL@EN: Bless those dark eyes
**kern
*clefG2
*k[b-]
*C:
*M2/4
*MM120
*>[A]
*>A
16cc
16cc
=1
8cc
8cc
8cc
8cc
=2
8dd
4cc
16cc
16cc
=3
8cc
16b-
16cc
8dd
16cc
16b-
=4
8b-
4a
16cc
16cc
=5
8cc
8cc
8cc
8cc
=6
8dd
4cc
16cc
16cc
=7
8cc
16b-
16cc
8dd
16cc
16b-
=8
4.a
==
*-
!!!ARE: Friuli
!!!ENC: Kelly Leistikow
!!!END: 2002/03/07
!!!ref: @{OTL@@FUR}/@{OTL@EN}
